svgs/thin/hourglass-half.svg

<svg xmlns="http://www.w3.org/2000/svg" viewBox="0 0 384 512"><!--! Font Awesome Pro 6.4.0 by @fontawesome - https://fontawesome.com License - https://fontawesome.com/license (Commercial License) Copyright 2023 Fonticons, Inc. --><path d="M0 8C0 3.6 3.6 0 8 0H40 344h32c4.4 0 8 3.6 8 8s-3.6 8-8 8H352V76.7c0 29.9-9.8 58.9-28 82.6l-74 96.7 74 96.7c18.1 23.7 28 52.8 28 82.6V496h24c4.4 0 8 3.6 8 8s-3.6 8-8 8H344 40 8c-4.4 0-8-3.6-8-8s3.6-8 8-8H32V435.3c0-29.9 9.8-58.9 28-82.6l74-96.7L60 159.3c-18.1-23.7-28-52.8-28-82.6L32 16H8c-4.4 0-8-3.6-8-8zm48 8l0 60.7c0 26.3 8.7 52 24.7 72.9l77.7 101.6c2.2 2.9 2.2 6.9 0 9.7L72.7 362.4C56.7 383.4 48 409 48 435.3V496H336V435.3c0-26.3-8.7-52-24.7-72.9L233.6 260.9c-2.2-2.9-2.2-6.9 0-9.7l77.7-101.6c16-20.9 24.7-46.5 24.7-72.9V16H48zm64.8 108.4c1.4-2.7 4.1-4.4 7.2-4.4H264c3 0 5.8 1.7 7.2 4.4s1.1 6-.8 8.4l-72 96c-1.5 2-3.9 3.2-6.4 3.2s-4.9-1.2-6.4-3.2l-72-96c-1.8-2.4-2.1-5.7-.8-8.4zM136 136l56 74.7L248 136H136zM113.6 379.2c1.5-2 3.9-3.2 6.4-3.2H264c2.5 0 4.9 1.2 6.4 3.2l11.2 14.9c9.3 12.5 14.4 27.6 14.4 43.2V456c0 4.4-3.6 8-8 8H96c-4.4 0-8-3.6-8-8V437.3c0-15.6 5.1-30.7 14.4-43.2l11.2-14.9zM124 392l-8.8 11.7c-7.3 9.7-11.2 21.5-11.2 33.6V448H280V437.3c0-12.1-3.9-23.9-11.2-33.6L260 392H124z"/></svg>

<svg xmlns="http://www.w3.org/2000/svg" viewBox="0 0 384 512"><!--! Font Awesome Pro 6.3.0 by @fontawesome - https://fontawesome.com License - https://fontawesome.com/license (Commercial License) Copyright 2023 Fonticons, Inc. --><path d="M112.8 124.4C114.2 121.7 116.1 120 120 120H264C267 120 269.8 121.7 271.2 124.4C272.5 127.1 272.2 130.4 270.4 132.8L198.4 228.8C196.9 230.8 194.5 232 192 232C189.5 232 187.1 230.8 185.6 228.8L113.6 132.8C111.8 130.4 111.5 127.1 112.8 124.4V124.4zM136 136L192 210.7L248 136H136zM113.6 379.2C115.1 377.2 117.5 376 120 376H264C266.5 376 268.9 377.2 270.4 379.2L281.6 394.1C290.9 406.6 296 421.8 296 437.3V456C296 460.4 292.4 464 288 464H96C91.58 464 88 460.4 88 456V437.3C88 421.8 93.05 406.6 102.4 394.1L113.6 379.2zM124 392L115.2 403.7C107.9 413.4 104 425.2 104 437.3V448H280V437.3C280 425.2 276.1 413.4 268.8 403.7L260 392H124zM0 8C0 3.582 3.582 0 8 0H376C380.4 0 384 3.582 384 8C384 12.42 380.4 16 376 16H352V76.67C352 106.5 342.2 135.6 324 159.3L250.1 256L324 352.7C342.2 376.4 352 405.5 352 435.3V496H376C380.4 496 384 499.6 384 504C384 508.4 380.4 512 376 512H8C3.582 512 0 508.4 0 504C0 499.6 3.582 496 8 496H32V435.3C32 405.5 41.83 376.4 59.97 352.7L133.9 256L59.97 159.3C41.83 135.6 32 106.5 32 76.67V16H8C3.582 16 0 12.42 0 8V8zM48 76.67C48 103 56.67 128.6 72.68 149.6L150.4 251.1C152.5 254 152.5 257.1 150.4 260.9L72.68 362.4C56.67 383.4 48 408.1 48 435.3V496H336V435.3C336 408.1 327.3 383.4 311.3 362.4L233.6 260.9C231.5 257.1 231.5 254 233.6 251.1L311.3 149.6C327.3 128.6 336 103 336 76.67V16H48V76.67z"/></svg>
